X:11
T:Cameron Highlanders
C:JS Skinner
Z:robin.beech@mcgill.ca
R:reel
M:4/4
L:1/8
K:A
A2ce A2ce | efec e2ce | A2ce A2ce | d2cd BdcB |
A2ce A2ce | efec eaga | f3e ce Be | cAAA A2ce ::
fafe ceBe | cAAA A2ce | fafe ceAB | cBBB B2ce |
fafe ceBe | cAAA A2ce | fafe ceBe | cAAA A2ce :|
\
